teeny/solid/edit-1.svg

<svg width="15" height="15" viewBox="0 0 15 15" fill="none" xmlns="http://www.w3.org/2000/svg">
<path d="M9.85355 0.146447C9.65829 -0.0488155 9.34171 -0.0488155 9.14645 0.146447L6.50002 2.79288L12.2071 8.49998L14.8536 5.85355C15.0488 5.65829 15.0488 5.34171 14.8536 5.14645L9.85355 0.146447Z" fill="black"/>
<path d="M0 9.29289L5.79291 3.49998L11.5 9.20709L5.70711 15H0.5C0.223858 15 0 14.7761 0 14.5V9.29289Z" fill="black"/>
<path d="M8 15H15V14H8V15Z" fill="black"/>
</svg>

<svg viewBox="0 0 15 15" xmlns="http://www.w3.org/2000/svg"><g><path d="M9.85.14c-.2-.2-.52-.2-.71 0L6.49 2.78l5.7 5.7 2.64-2.65c.19-.2.19-.52 0-.71L9.82.11Z"/><path d="M0 9.29l5.79-5.8 5.7 5.7 -5.8 5.79H.48c-.28 0-.5-.23-.5-.5V9.27Z"/><path d="M8 15h7v-1H8v1Z"/></g></svg>
